!!!COM: Peter Cornelius
!!!CNT: Deutsch
!!!TXO: Deutsch
!!!OTL: Mo2cht' im Walde
!!!LYR: Cornelius
!!!OPR: Three Songs
!!!OPS: Op.4
!!!ONM: No. 
!!!ENC: Ben Fuhrman
!!!YOR: CD Sheet Music, Mid-Romantic German Lieder: The Ultimate Collection.
!!!YOR: CD Sheet Music, LLC 2001
!!!ODT: 1854
!!NB: Only vocal melody encoded.
!!NB: First instance of melodic material only encoded.
!!created: 2/2/10 3:30PM
!!proofed and posted: 2/2/10 3:35PM
**kern	**silbe
*clef G2	*
*k[b-e-]	*
*M3/4	*
*MM[Ziemlich schnell]	*
=2	=2
4r	.
4r	.
{8.dd	{Mo2cht'
16dd	im
=3	=3
4gg	Wal-
4dd	-de
8b-	mit
8cc	dir
=4	=4
2dd	geh'n,
8b-	wo
8b-	im
=5	=5
4.ee-	Laub
8ee-	sich
8cc	Vo2g-
8ee-	-lein
=6	=6
(8.b-	wie-
16cc)	|
4b-}	-gen,}
4r	.
=7	=7
4r	.
{4cc	{mo2cht'
4cc	im
=8	=8
4.cc	Wal-
8a	-de
8bn	mit
8cc	dir
=9	=9
2dd	geh'n,
8bn	denn
8bn	der
=10	=10
[2.ee	Wald
=11	=11
4.een]	|
8dd	ist
8dd	so
8cc	ver-
=12	=12
2.bn	-schwie-
=13	=13
2dd}	-gen.}
4r	.
!! Rest to measure 16
=16	=16
4r	.
4r	.
{8.bn	{Wo
16bn	der
=17	=17
4.een	La2rm
8bn	der
8.een	Stadt
16bn	ver-
=18	=18
2een	hallt,
8een	blu2h'n
8dd	so
=19	=19
4.cc	scho2n
8a	die
8cc	wil-
8een	-den
=20	=20
4dd	Ro-
4a}	-sen,}
4r	.
=21	=21
4r	.
4r	.
{8.dd	{so
16dd	ver-
=22	=22
4gg	schwie-
4dd	-gen
8b-	ist
8cc	der
=23	=23
2dd	Wald,
8b-	so
8b-	ge-
=24	=24
4.ee-	-heim
8ee-	der
8cc	Quel-
8ee-	-le
=25	=25
(8.b-	Ko-
16cc)	|
4b-}	-sen,}
4r	.
=26	=26
4r	.
{4cc	{so
4cc	ver-
=27	=27
4.cc	-schwie-
8a	-gen
8bn	ist
8cc	der
=28	=28
2dd	Wald,
8bn	so
8bn	ge-
=29	=29
[2.een	-heim
=30	=30
4.een]	|
8dd	der
8dd	Quel-
8cc	-le
=31	=31
2.bn	Ko-
=32	=32
2dd}	-sen.}
4r	.
!! Rest to measure 35
=35	=35
4r	.
{4een	{Lieb-
4bn	-lich
=36	=36
4r	.
8.bn	dort
16bn	am
8.een	vol-
16bn	-len
=37	=37
2een}	Strauch,}
4r	.
=38	=38
2.r	.
=39	=39
4r	.
{4dd	{Blu2-
4a	-ten
=40	=40
4r	.
8a	sich
8a	an
8.dd	Blu2-
16a	-ten
=41	=41
2.dd	schmie-
=42	=42
4b-	-gen,
4r	.
8b-	an
8b-	den
=43	=43
4.b-	Stamm
8cc	der
8dd	E-
8a	-pheu
=44	=44
4b-}	auch,}
4r	.
4r	.
=45	=45
4r	.
{4b-	{und
4b-	der
=46	=46
4.b-	Wald
8ee-	ist
8cc	so
8dd	ver-
=47	=47
(4ff	-schwie
4..ee-	|
16dd)	|
=48	=48
2dd}	-gen.}
4r	.
!! Rest to measure 51
=51	=51
4r	.
4r	.
{8.dd	{Wo
16dd	das
=52	=52
4.gg	Reh
8dd	ent-
8b-	-flieht
8cc	als-
=53	=53
2dd	-bald,
8b-	ho2rt's
8b-	ein
=54	=54
4.ee-	Rau-
8ee-	-schen
8cc	in
8ee-	den
=55	=55
(8.b-	Zwei-
16cc)	|
4b-}	-gen,}
4r	.
=56	=56
4r	.
{4cc	{so
4cc	ver-
=57	=57
4.cc	-schwie-
8a	-gen
8bn	ist
8cc	der
=58	=58
2dd	Wald,
8bn	so
8bn	be-
=59	=59
[2.ee-	-red-
=60	=60
4.ee-]	|
8dd	-sam
8dd	ist
8cc	sein
=61	=61
2.bn	Schwei-
=62	=62
2dd}	-gen!}
4r	.
!! Rest to measure 65
=65	=65
4r	.
4r	.
{8bn	{Wenn
8bn	mein
=66	=66
4.een	Lied
8ff	zu
8een	En-
8dd	-de
=67	=67
2cc}	geht,}
4r	.
=68	=68
4r	.
{4cc	{sing'
4cc	ich's
=69	=69
4.aa	wei-
8gg	-ter
8ff#	in
8een	Ge-
=70	=70
4een	-dan-
8dd}	-ken:}
8r	.
4r	.
!! Rest to measure 73
=73	=73
4r	.
4r	.
{8b-	{Wie's
8b-	im
=74	=74
[4b-	Wald
8b-]	|
8cc	ver-
8dd	-schwie-
8a	-gen
=75	=75
[4b-	weht,
8b-]}	|}
8r	.
4r	.
=76	=76
2.r	.
=77	=77
4r	.
4r	.
{8b-	{wie
8b-	die
=78	=78
4.b-	Ro-
8ee-	-sen
8cc	sich
8dd	um-
=79	=79
(4ff	-ran-
4..ee-	|
16dd)	|
=80	=80
4dd}	-ken!}
4r	.
4r	.
==	==
*-	*-
